F[BALLADE
CUT[Waise und Stiefmutter
    Morgens in aller Frueh',]
CNR[da treiben drei Weiber die Kueh',]
REG[Osteuropa, Ungarn]
SRC[5, S. 300
    ????]
KEY[Q1116G 08  G 3/4]
MEL[  1_.11_  1_-7_1_  2__
    -5_  2_.22_  2_1_2_  3__
    5_  5_3_3_  3_2_5_  4__3_  2__
    -5_  1__3_  5_4_2_  1__. //] >>
FCT[???]
CMT[Melodievergleich zu Q0116, anderes Lied.]
